dist/img/partners/logo-1.svg

<svg width="117" height="26" viewBox="0 0 117 26" fill="none" xmlns="http://www.w3.org/2000/svg">
<path d="M16.388 14.4403C16.3481 14.4877 16.3099 14.5369 16.2675 14.5815L16.2667 14.5908L12.2844 19.0455L12.2777 19.0436C12.0135 19.3412 11.699 19.5772 11.3528 19.7382C11.0065 19.8992 10.6351 19.9819 10.26 19.9815H6.34001C6.2623 19.9814 6.18533 19.9984 6.11351 20.0315C6.04169 20.0647 5.97641 20.1134 5.92143 20.1749C5.86644 20.2362 5.82282 20.3092 5.79306 20.3895C5.76329 20.4697 5.74798 20.5558 5.74798 20.6427V24.5578L5.73552 24.5587C5.71429 24.7029 5.65795 24.8377 5.57269 24.9484C5.48744 25.059 5.37656 25.1413 5.25224 25.1861C5.12792 25.2309 4.99497 25.2365 4.86797 25.2024C4.74098 25.1682 4.62486 25.0956 4.53236 24.9925L4.52987 24.9943L0.917903 20.9566L0.921223 20.9501C0.644656 20.6535 0.424618 20.2974 0.274355 19.9032C0.124091 19.509 0.0467122 19.0849 0.0468753 18.6563V8.55374C0.0468753 7.69752 0.349949 6.9221 0.841508 6.34913L0.839848 6.34356L4.93508 1.76352L4.93674 1.76445C5.46821 1.18117 6.18326 0.854683 6.92788 0.855317H10.26C10.6852 0.855317 11.087 0.96211 11.4483 1.14877V1.14134C11.7572 1.30199 12.0378 1.51836 12.2736 1.78395L12.2786 1.78117L17.1394 7.21741L17.1402 13.5943H22.8281V23.5029C22.8297 23.5085 22.8297 23.515 22.8297 23.5215V23.7453C22.8047 24.1475 22.6442 24.524 22.3807 24.799C22.1172 25.0741 21.7703 25.2272 21.4098 25.2274H18.5592C18.3623 25.2272 18.1677 25.1815 17.9873 25.0929C17.8071 25.0043 17.6451 24.875 17.5118 24.713C17.3785 24.5509 17.2766 24.3597 17.2127 24.1515C17.1487 23.9432 17.124 23.7224 17.1402 23.5029V13.5943L16.388 14.4403ZM10.8562 13.6018C10.9339 13.6019 11.0109 13.5849 11.0827 13.5517C11.1546 13.5185 11.2198 13.4699 11.2748 13.4084C11.3298 13.3471 11.3734 13.2741 11.4032 13.1938C11.433 13.1136 11.4483 13.0275 11.4483 12.9406V7.89439C11.4483 7.80748 11.433 7.72142 11.4032 7.64114C11.3734 7.56086 11.3298 7.48793 11.2748 7.42652C11.2198 7.36511 11.1546 7.31643 11.0827 7.28326C11.0109 7.25008 10.9339 7.23308 10.8562 7.2332V7.23227H6.33918C6.1823 7.23227 6.03184 7.30189 5.92084 7.42586C5.80984 7.54984 5.74737 7.71801 5.74715 7.89345V12.9387C5.74715 13.3047 6.01202 13.6 6.33918 13.6H10.8545L10.8562 13.6018Z" fill="white"/>
<path d="M17.1436 13.601H22.8314L17.1436 7.22589V13.601Z" fill="white"/>
<path d="M30.894 6.16701H36.1575C38.3081 6.16701 40.2162 6.16701 41.3654 8.01222C41.8661 8.84148 42.1069 10.0227 42.1069 11.0173C42.1069 11.8252 41.9583 12.6136 41.6619 13.2971C40.5318 15.9094 38.1221 15.9716 36.3427 16.0124H34.1747V20.8005H30.894V6.16701ZM34.1763 8.86194V13.2971H36.1426C37.3673 13.2971 38.8511 13.2563 38.8511 10.9969C38.8511 8.86103 37.1996 8.86103 36.2538 8.86103L34.1763 8.86194ZM46.0377 11.0981C46.6679 10.4963 47.3538 10.02 48.836 9.85368V12.6731L47.891 12.8384C46.5201 13.1076 46.1116 13.3361 46.1116 14.704V20.7977H43.2578V9.95769H46.0377V11.0981ZM59.9741 15.3652C59.9741 18.1019 58.5658 21.1069 54.7845 21.1069C52.0602 21.1069 49.5766 19.3657 49.5766 15.3652C49.5766 12.049 51.4482 9.41633 55.1557 9.64474C59.1031 9.8936 59.9741 13.3965 59.9741 15.3652ZM52.9312 13.2321C52.5791 13.8543 52.4496 14.6019 52.4496 15.3494C52.4496 17.072 53.1903 18.5875 54.7845 18.5875C56.3231 18.5875 57.0829 17.1964 57.0829 15.4952C57.0829 14.2907 56.823 13.3566 56.2858 12.7752C55.6929 12.153 55.0253 12.1316 54.6176 12.1735C53.8022 12.2356 53.3206 12.5468 52.932 13.2321H52.9312ZM62.2916 8.89724C62.2916 8.3586 62.3281 7.63241 62.6985 7.05201C63.0514 6.5134 63.8477 5.95343 65.1828 5.95343C65.7574 5.95343 66.3321 6.05744 66.8875 6.13916V8.52391H66.2017C65.1272 8.52391 65.0716 8.77277 65.0899 10.2233H66.9988V12.1716H65.1081V20.7949H62.2725V12.1716H60.753V10.2233H62.2916V8.89724Z" fill="white"/>
<path d="M68.4254 8.61479H71.2413V6.14835H68.4254V8.61479ZM68.4254 20.8031H71.2413V9.96229H68.4254V20.8031Z" fill="white"/>
<path d="M74.1514 6.84488H76.9869V10.2233H78.8592V12.1715H76.9686V17.0432C76.9503 17.7062 76.9503 18.2661 77.7104 18.2661L78.7292 18.2244V20.7113C78.1182 20.8153 77.747 20.8775 77.2288 20.8775C76.2452 20.8775 75.1709 20.8153 74.5592 19.8198C74.1704 19.1781 74.1521 18.4111 74.1521 17.3747V12.1511H72.7431V10.2028H74.1514V6.84488Z" fill="white"/>
<path d="M89.5666 6.16724C89.9568 7.7422 90.3449 9.31807 90.7703 10.894C91.4944 13.7124 91.6238 14.1684 92.0316 17.0081C92.4204 14.1062 92.5132 13.6094 93.1059 10.6238C93.3843 9.13148 93.6804 7.63912 93.9588 6.16724H97.2021L93.8849 20.8007H90.5115C90.1044 19.1849 89.7143 17.5672 89.2882 15.9718C88.5837 13.2769 88.5465 13.1728 88.157 11.1215C87.8244 12.9249 87.7871 13.0698 87.0454 15.8678L85.7848 20.8007H82.4121L79.0949 6.16724H82.3572C83.7655 13.1106 83.9145 13.8777 84.3026 17.049C84.7843 14.1479 84.915 13.588 85.6005 10.6859L86.6748 6.16724H89.5666Z" fill="white"/>
<path d="M106.784 18.0464C106.45 18.6063 106.116 19.145 105.616 19.6632C104.781 20.5342 103.521 21.1972 101.965 21.1972C99.092 21.1972 97.072 19.145 97.072 15.6003C97.072 12.9891 98.2209 9.6311 102.039 9.6311C102.614 9.6311 104.281 9.6933 105.523 11.1856C106.784 12.6993 106.857 14.8128 106.895 16.0359H99.9821C99.9631 17.3824 100.649 18.7308 102.188 18.7308C103.744 18.7308 104.281 17.5904 104.634 16.8234L106.784 18.0464ZM103.947 14.0366C103.892 13.5824 103.818 12.9844 103.41 12.5098C103.057 12.117 102.522 11.9109 102.02 11.9109C101.335 11.9109 100.853 12.2823 100.575 12.6129C100.185 13.0875 100.093 13.5824 100 14.0366H103.947Z" fill="white"/>
<path d="M108.547 20.8007H111.401V6.16724H108.547V20.8007Z" fill="white"/>
<path d="M113.952 20.8007H116.806V6.16724H113.952V20.8007Z" fill="white"/>
</svg>

<svg width="118" height="26" fill="none" xmlns="http://www.w3.org/2000/svg"><g clip-path="url(#clip0_2:270)" opacity=".3" fill="#fff"><path d="M16.388 14.44c-.04.048-.078.097-.12.142l-.001.009-3.983 4.455-.006-.002a2.844 2.844 0 01-.925.694 2.581 2.581 0 01-1.093.244H6.34a.539.539 0 00-.226.05.59.59 0 00-.193.143.67.67 0 00-.128.215.729.729 0 00-.045.253v3.915h-.012a.84.84 0 01-.163.39.711.711 0 01-.32.238.64.64 0 01-.385.016.695.695 0 01-.336-.21l-.002.002-3.612-4.037.003-.007a3.21 3.21 0 01-.647-1.047 3.503 3.503 0 01-.227-1.247V8.554c0-.856.303-1.632.795-2.205L.84 6.344l4.095-4.58h.002c.531-.583 1.246-.91 1.99-.909h3.333c.425 0 .827.107 1.188.294V1.14c.31.161.59.377.826.643l.005-.003 4.86 5.436.001 6.377h5.688v9.909c.002.006.002.012.002.018v.224a1.674 1.674 0 01-.45 1.054c-.263.275-.61.428-.97.428h-2.85c-.198 0-.392-.046-.573-.134a1.442 1.442 0 01-.475-.38 1.642 1.642 0 01-.3-.562 1.77 1.77 0 01-.072-.648v-9.909l-.752.846zm-5.532-.838a.537.537 0 00.227-.05.59.59 0 00.192-.144.67.67 0 00.128-.214.728.728 0 00.045-.253V7.894a.729.729 0 00-.045-.253.672.672 0 00-.128-.214.59.59 0 00-.192-.144.537.537 0 00-.227-.05H6.34a.562.562 0 00-.418.193.704.704 0 00-.174.467v5.046c0 .366.265.661.592.661h4.515l.002.002z"/><path d="M17.144 13.601h5.687l-5.687-6.375V13.6zm13.75-7.434h5.264c2.15 0 4.058 0 5.207 1.845.501.83.742 2.01.742 3.005 0 .808-.149 1.597-.445 2.28-1.13 2.612-3.54 2.675-5.32 2.715h-2.167V20.8h-3.281V6.168zm3.282 2.695v4.435h1.967c1.224 0 2.708-.04 2.708-2.3 0-2.136-1.651-2.136-2.597-2.136h-2.078zm11.862 2.236c.63-.602 1.316-1.078 2.798-1.244v2.82l-.945.164c-1.37.27-1.78.498-1.78 1.866v6.094h-2.853V9.958h2.78v1.14zm13.936 4.267c0 2.737-1.408 5.742-5.19 5.742-2.724 0-5.207-1.741-5.207-5.742 0-3.316 1.871-5.949 5.579-5.72 3.947.249 4.818 3.752 4.818 5.72zm-7.043-2.133c-.352.622-.481 1.37-.481 2.117 0 1.723.74 3.238 2.334 3.238 1.54 0 2.299-1.39 2.299-3.092 0-1.204-.26-2.138-.797-2.72-.593-.622-1.26-.643-1.668-.601-.816.062-1.297.373-1.686 1.058zm9.36-4.335c0-.538.037-1.265.408-1.845.352-.539 1.149-1.099 2.484-1.099.574 0 1.15.104 1.704.186v2.385h-.685c-1.075 0-1.13.249-1.112 1.7h1.909v1.948h-1.89v8.623h-2.836v-8.623h-1.52v-1.949h1.539V8.897zm6.134-.282h2.816V6.148h-2.816v2.467zm0 12.188h2.816V9.963h-2.816v10.84zm5.726-13.958h2.836v3.378h1.872v1.948h-1.89v4.872c-.019.663-.019 1.223.741 1.223l1.02-.042v2.487c-.612.104-.983.167-1.501.167-.984 0-2.058-.063-2.67-1.058-.389-.642-.407-1.409-.407-2.445V12.15h-1.409v-1.948h1.408V6.845zm15.416-.678c.39 1.575.778 3.151 1.203 4.727.724 2.818.854 3.274 1.262 6.114.388-2.902.481-3.399 1.074-6.384.278-1.493.574-2.985.853-4.457h3.243l-3.317 14.634H90.51c-.407-1.616-.797-3.234-1.223-4.83-.704-2.694-.742-2.798-1.131-4.85-.333 1.804-.37 1.949-1.112 4.747l-1.26 4.933h-3.373L79.095 6.167h3.262c1.409 6.944 1.558 7.71 1.946 10.882.481-2.901.612-3.461 1.297-6.363l1.075-4.519h2.892zm17.217 11.879c-.334.56-.668 1.099-1.168 1.617a5.016 5.016 0 01-3.651 1.534c-2.873 0-4.893-2.052-4.893-5.597 0-2.61 1.149-5.969 4.967-5.969.575 0 2.242.062 3.484 1.555 1.261 1.513 1.334 3.627 1.372 4.85h-6.913c-.019 1.346.667 2.695 2.206 2.695 1.556 0 2.093-1.14 2.446-1.908l2.15 1.223zm-2.837-4.01c-.055-.454-.129-1.052-.537-1.526-.353-.393-.888-.6-1.39-.6-.685 0-1.167.372-1.445.703-.39.475-.482.97-.575 1.424h3.947zm4.6 6.764h2.854V6.168h-2.854v14.634zm5.405 0h2.854V6.168h-2.854v14.634z"/></g><defs><clipPath id="clip0_2:270"><path fill="#fff" transform="translate(.047 .517)" d="M0 0h117.188v25H0z"/></clipPath></defs></svg>
